X: 1
T:Hallowe'en
% Nottingham Music Database
S:Chris Dewhurst 1983, via PR
M:4/4
L:1/4
K:G
c/2B/2|"Am"A/2^G/2A/2B/2 c/2B/2c/2d/2|"Am"e/2d/2e/2f/2 "D7"g/2e/2d/2B/2|\
"G"GB/2G/2 d/2G/2B/2d/2|g/2e/2d/2B/2 G/2A/2B/2G/2|
"Am"A/2^G/2A/2B/2 c/2B/2c/2d/2|"Am"e/2d/2e/2f/2 "D7"g/2e/2d/2B/2|\
"G"G/2A/2B/2G/2 "E7"e/2d/2c/2B/2|"Am"cA A::
c/2B/2|"Am"Aa/2A/2 g/2A/2f/2A/2|"Am"e/2d/2e/2f/2 "D7"g/2e/2d/2B/2|\
"G"GB/2G/2 d/2G/2B/2d/2|"G"g/2e/2d/2B/2 G/2A/2B/2G/2|
"Am"Aa/2A/2 g/2A/2f/2A/2|"Am"e/2d/2e/2f/2 "D7"g/2e/2d/2B/2|\
"G"G/2A/2B/2G/2 "E7"e/2d/2c/2B/2|"Am"cA A:|<end>
<start>
